frontend/icons/arrowNarrowUp.svg

<svg xmlns="http://www.w3.org/2000/svg" viewBox="0 0 16 16"><path d="M7.907 2.186a1 1 0 0 0-.16.061c-.116.062-4.133 4.095-4.188 4.204-.201.404.254.858.656.656.051-.025.809-.761 1.685-1.636l1.593-1.59.007 4.786.007 4.786.07.121c.194.329.66.326.85-.005l.066-.116.007-4.786.007-4.786 1.593 1.59c.876.875 1.634 1.611 1.685 1.636.403.202.857-.253.655-.656-.059-.119-4.047-4.115-4.187-4.196a.46.46 0 0 0-.346-.069"/></svg>

<svg xmlns="http://www.w3.org/2000/svg" version="1.1" viewBox="0 0 16 16" role="img">
  <path d="M7.907 2.186 C 7.863 2.196,7.791 2.224,7.747 2.247 C 7.631 2.309,3.614 6.342,3.559 6.451 C 3.358 6.855,3.813 7.309,4.215 7.107 C 4.266 7.082,5.024 6.346,5.900 5.471 L 7.493 3.881 7.500 8.667 L 7.507 13.453 7.577 13.574 C 7.771 13.903,8.237 13.900,8.427 13.569 L 8.493 13.453 8.500 8.667 L 8.507 3.881 10.100 5.471 C 10.976 6.346,11.734 7.082,11.785 7.107 C 12.188 7.309,12.642 6.854,12.440 6.451 C 12.381 6.332,8.393 2.336,8.253 2.255 C 8.128 2.182,8.018 2.160,7.907 2.186" />
</svg>
